X:18351
T:Wagner Walzer - Walzer/Waltz/Valse
C:Oberoesterreichisches Volksliedwerk MIII-S6
Z:abc transcription Simon Wascher
N:please mail errors to simon.wascher@chello.at
M:3/4
L:1/4
K:C
g|a2g|e2c|B2a|gzg|
a2g|d2^d|e3|ezg|
c'2b|d'2c'|b2a|aza|
g2B|a2B|c3|c2:|
|:e|e^de|g3|g/f/fd|c3|
Gc/c/c/c/|ed/d/d/d/|Bd/d/d/d/|fe/e/e/e/|
e^de|g3|g/f/fd|c3|
Gc/c/c/c/|ed/d/d/d/|efg|e2:|
K:F
|:z|c=Bc|e3|e/d/dB|
A3|cA/A/A/A/|cB/B/B/B/|GB/B/B/B/|
dc/c/c/c/|c=Bc|e3|e/d/dB|
A3|cA/A/A/A/|cB/B/B/B/|cde|f2:|


